src/images/svg/symbols/markets-stocks-and-indices/american-stocks/stocks-visa.svg

<svg width="32" height="32" viewBox="0 0 32 32" fill="none" xmlns="http://www.w3.org/2000/svg">
<path d="M0 16C0 7.16344 7.16344 0 16 0C24.8366 0 32 7.16344 32 16C32 24.8366 24.8366 32 16 32C7.16344 32 0 24.8366 0 16Z" fill="#1A1F71"/>
<path d="M19.705 12C20.3 11.9981 20.8902 12.1074 21.445 12.3225L21.175 13.9575L21.0025 13.8675C20.5433 13.6708 20.0469 13.5761 19.5475 13.59C18.7975 13.59 18.445 13.8825 18.4375 14.2425C18.43 14.6025 18.85 14.8275 19.525 15.18C20.65 15.72 21.16 16.3725 21.16 17.235C21.16 18.8025 19.825 19.8225 17.785 19.8225C17.046 19.8239 16.3133 19.6866 15.625 19.4175L15.9025 17.7225L16.15 17.8425C16.7184 18.1226 17.3467 18.259 17.98 18.24C18.5425 18.24 19.1425 18.0075 19.1425 17.49C19.1425 17.1525 18.8725 16.905 18.1375 16.545C17.4025 16.185 16.435 15.5775 16.435 14.49C16.4275 13.0275 17.785 12 19.705 12ZM23.905 12.75C23.9848 12.5518 24.1285 12.386 24.3133 12.2786C24.498 12.1713 24.7133 12.1287 24.925 12.1575H26.425L28 19.7025H26.2L26.0875 19.185V19.08C26.0425 18.8775 26.005 18.6825 25.9825 18.5775H23.5C23.425 18.7725 23.095 19.7025 23.095 19.7025H21.025L23.905 12.75ZM15.61 12.1575L14.395 19.7025H12.46L13.675 12.1575H15.61ZM7.1575 12.1575C7.35762 12.1362 7.55856 12.1895 7.72186 12.3071C7.88515 12.4247 7.99932 12.5985 8.0425 12.795L8.725 16.2675V16.305L8.9275 17.355L10.825 12.1575H12.8875L9.8125 19.695H7.75L6.025 13.125C5.39308 12.7525 4.7112 12.4722 4 12.2925V12.1575H7.1575ZM25.06 14.1825C25.0075 14.34 24.9325 14.5575 24.8725 14.7075V14.775L24.8275 14.9025L24.0775 17.0175H25.69C25.6525 16.8525 25.5625 16.4025 25.4725 15.96V15.8175L25.27 14.835L25.06 14.1825Z" fill="white"/>
</svg>

<svg width="32" height="32" fill="none" xmlns="http://www.w3.org/2000/svg"><path d="M0 16C0 7.163 7.163 0 16 0s16 7.163 16 16-7.163 16-16 16S0 24.837 0 16Z" fill="#1A1F71"/><path d="M19.705 12a4.771 4.771 0 0 1 1.74.322l-.27 1.636-.172-.09a3.451 3.451 0 0 0-1.456-.278c-.75 0-1.102.293-1.11.652-.007.36.413.585 1.088.938 1.125.54 1.635 1.192 1.635 2.055 0 1.567-1.335 2.588-3.375 2.588a5.901 5.901 0 0 1-2.16-.405l.277-1.695.248.12c.568.28 1.197.416 1.83.397.563 0 1.162-.232 1.162-.75 0-.337-.27-.585-1.005-.945-.735-.36-1.702-.968-1.702-2.055-.008-1.463 1.35-2.49 3.27-2.49Zm4.2.75a.96.96 0 0 1 1.02-.592h1.5L28 19.703h-1.8l-.113-.518v-.105c-.044-.202-.082-.397-.104-.502H23.5c-.075.195-.405 1.125-.405 1.125h-2.07l2.88-6.953Zm-8.295-.592-1.215 7.545H12.46l1.215-7.545h1.935Zm-8.453 0a.818.818 0 0 1 .886.637l.682 3.472v.038l.203 1.05 1.897-5.197h2.063l-3.075 7.537H7.75l-1.725-6.57A7.704 7.704 0 0 0 4 12.293v-.135h3.157Zm17.903 2.024c-.052.158-.127.375-.188.525v.068l-.044.127-.75 2.115h1.612c-.038-.165-.128-.614-.218-1.057v-.143l-.202-.982-.21-.653Z" fill="#fff"/></svg>
